assets/img/icons/bag.svg

<svg width="18" height="22" viewBox="0 0 18 22" fill="none" xmlns="http://www.w3.org/2000/svg">
<path fill-rule="evenodd" clip-rule="evenodd" d="M5.15498 5.58329C5.50489 3.77896 7.09331 2.41663 8.99992 2.41663C10.9065 2.41663 12.4949 3.77896 12.8449 5.58329H5.15498ZM3.63475 5.58329C3.99994 2.9467 6.26285 0.916626 8.99992 0.916626C11.737 0.916626 13.9999 2.9467 14.3651 5.58329H17.1666C17.5808 5.58329 17.9166 5.91908 17.9166 6.33329V20.3333C17.9166 20.7475 17.5808 21.0833 17.1666 21.0833H0.833249C0.419036 21.0833 0.0832491 20.7475 0.0832491 20.3333V6.33329C0.0832491 5.91908 0.419036 5.58329 0.833249 5.58329H3.63475ZM13.6666 7.08329H4.33325H1.58325V19.5833H16.4166V7.08329H13.6666Z" fill="white"/>
</svg>

<svg width="18" height="22" fill="none" xmlns="http://www.w3.org/2000/svg"><path fill-rule="evenodd" clip-rule="evenodd" d="M5.155 5.583a3.918 3.918 0 017.69 0h-7.69zm-1.52 0a5.418 5.418 0 0110.73 0h2.802a.75.75 0 01.75.75v14a.75.75 0 01-.75.75H.833a.75.75 0 01-.75-.75v-14a.75.75 0 01.75-.75h2.802zm10.032 1.5H1.583v12.5h14.834v-12.5h-2.75z" fill="#fff"/></svg>
